remix/Device/dual-sim-2-line.svg

<svg viewBox="0 0 24 24" fill="currentColor" xmlns="http://www.w3.org/2000/svg"><path d="M15 2L19.7071 6.70711C19.8946 6.89464 20 7.149 20 7.41421V21C20 21.5523 19.5523 22 19 22H5C4.44772 22 4 21.5523 4 21V3C4 2.44772 4.44772 2 5 2H15ZM14.171 4H6V20H18V7.829L14.171 4ZM12 7.5C13.6569 7.5 15 8.84315 15 10.5C15 11.3841 14.6175 12.179 14.009 12.728L14.0013 12.72L14.0074 12.7294L12.5953 14H15V16H9L8.99926 14.547L12.6691 11.2431C12.8723 11.06 13 10.7949 13 10.5C13 9.94772 12.5523 9.5 12 9.5C11.4477 9.5 11 9.94772 11 10.5H9C9 8.84315 10.3431 7.5 12 7.5Z"/></svg>

<svg viewBox="0 0 24 24" xmlns="http://www.w3.org/2000/svg"><path fill="none" d="M0 0h24v24H0Z"/><path d="M15 2l4.7 4.707V6.7c.18.18.29.44.29.7v13.586 0c0 .55-.45 1-1 1h-14v0c-.56 0-1-.45-1-1v-18 0c0-.56.44-1 1-1h10Zm-.83 2H5.99v16h12V7.82l-3.83-3.83Zm-2.18 3.5v0c1.65-.01 3 1.34 3 2.99 0 .84-.37 1.65-1 2.22l-.01-.01 0 .01 -1.42 1.27h2.4v2h-6v-1.46l3.67-3.31 0 0c.4-.38.44-1.01.07-1.42 -.38-.41-1.01-.45-1.42-.08 -.21.18-.33.45-.33.74h-2v0c0-1.66 1.34-3 3-3Z"/></svg>
